X:1
T:Morning Star
M:4/4
C:
S:Bacon (BC (RKS \& DNK from Benfield, 1925))
N:transposed from F to G
A:Bledington
O:English
R:Reel
%P:A/2(AB)$^4$
P:A.(AB)4
K:G
I:speed 400
"A"|: BcBG  E2 FG | ABAF D2 GA | BcBG E2 AF | D2 G2 G4 "B":: B2 B2 d2 d2 |\
egfe dcBA  | 
GABc d2 d2 | egfe  d4 | B2 Bc d2 d2 | egfe dB G2 | ABcA FGAF  | D2 G2 G4 :|
